X: 1924
T: Var iken Zâtında Böyle...
C: Tanburî Cemil Bey
O: Turkey
F: http://compmusic.upf.edu/node/140
N: mahur--sarki--agiraksak--var_iken--tanburi_cemil_bey
N: makam= mahur
N: form= sarki
N: usul= agiraksak = 9/4
M: 9/4
L: 1/16
K: C ^9/8f   
Q: 1/4=72
%%MIDI tuningsystem comma53
f2g4c'2 b3c' a3b g3a f3g e3=f d2e2 d2c2  | \
w:  ARANAĞME  | 
dcBc defg ag=fe dedc B3A ABAG G4 d2e^9/8f g4  | 
w:   | 
f2g4c'2 b3c' a3b g3a f3g e3=f d2e2 d2c2  | \
w:  ARANAĞME  | 
dcBc defg ag=fe dedc B3A ABAG G4 z8  | 
w:   | 
z8 z2gf e2fg f2g6 f2g2 a2b2 a2g2  | \
w:  Var_ *  *  i *  ken  *  zâ  | 
a2ga g2f2 z2gf e2g2 f2g2 f2e2 f3e d4 e3d  | 
w:  *  *  *  *  *  tın *  *  da  böy *  *  *  le   | 
d8 z2de d2e2 d2e4d2 e2f2 g2a2 g2f2  | \
w:  *  hüsn_ *  *  ü  an  *  *  ol  | 
b2a2 agfe d2b2 a2g2 f2g2 a2{b}ag g6ga gfef  | 
w:  *  *  *  *  *  *  *  ma  *  *  *  *  *  *  ni *  hân   SAZ  | 
g8 z2d4a2 a3g g3=f f3_1/4e _2/4e3d d2_3/4ed  | \
w:  *  Sey re  çık  *  ref  | 
gf_7/8ed cBc2 z2=e2 d2e2 d3c c3B B3A A2B2 c2d2  | 
w:  *  *  *  *  *  *  *  târ  *  e dip  *  *  *  uş  | 
e2d^c _7/8BAG2 z2=B2 A2{B}AG G8 c2d2 e2f2 g2=fe  | \
w:  *  *  *  *  *  *  şâ *  *  kı  *  ey le   | 
ag=fe d^c_7/8BA G2B2 A2G2 F2G2 A2AG G6ga g^9/8fef  | 
w:  *  *  *  *  *  *  *  *  *  şâ *  *  *  *  *  di  *  gam   SAZ  | 
g8 z2d4a2 a3g g3=f f3_1/4e _2/4e3d d2_3/4ed  | \
w:  *  Sey re  çık  *  ref  | 
gf_7/8ed cBc2 z2=e2 d2e2 d3c c3B B3A A2B2 c2d2  | 
w:  *  *  *  *  *  *  *  târ  *  e dip  *  *  *  uş  | 
e2d^c _7/8BAG2 z2=B2 A2{B}AG G8 c2d2 e2f2 g2=fe  | \
w:  *  *  *  *  *  *  şâ *  *  kı  *  ey le   | 
ag=fe d^c_7/8BA G2B2 A2G2 F2G2 A2AG G6e2 ed=cd  | 
w:  *  *  *  *  *  *  *  *  *  şâ *  *  *  *  *  di  *  gam   SAZ  | 
c8 z2c4d2 e3d cde=f d2e4ed ^fgfg  | \
w:  *  Sen  ki min  *  *  *  *  *  mef  | 
bagf ede2 z2g2 f2e2 f2g2 a2b2 a3g g3f b2{c'}ag  | 
w:  *  *  *  *  *  *  *  tû *  nu sun  *  *  *  mah  | 
g8 z2g4c'2 c'3b b3a a3/2c'/b3/2a/ a8  | \
w:  *  zun  du rur *  *  *  sun   | 
ac'ba agfe d2b2 a2g2 f2g2 a2{b}ag g6ga gfef  | 
w:  *  *  *  *  *  *  *  *  *  her  *  *  *  *  *  *  za *  man   SAZ  | 
g8 z2d4a2 a3g g3=f f3_1/4e _2/4e3d d2_3/4ed  | \
w:  *  Sey re  çık  *  ref  | 
gf_7/8ed cBc2 z2=e2 d2e2 d3c c3B B3A A2B2 c2d2  | 
w:  *  *  *  *  *  *  *  târ  *  e dip  *  *  *  uş  | 
e2d^c _7/8BAG2 z2=B2 A2{B}AG G8 c2d2 e2f2 g2=fe  | \
w:  *  *  *  *  *  *  şâ *  *  kı  *  ey le   | 
ag=fe d^c_7/8BA G2B2 A2G2 F2G2 A2AG G6ga g^9/8fef  | 
w:  *  *  *  *  *  *  *  *  *  şâ *  *  *  *  *  di  *  gam   SAZ  | 
g8 z2d4a2 a3g g3=f f3_1/4e _2/4e3d d2_3/4ed  | \
w:  *  Sey re  çık  *  ref  | 
gf_7/8ed cBc2 z2=e2 d2e2 d3c c3B B3A A2B2 c2d2  | 
w:  *  *  *  *  *  *  *  târ  *  e dip  *  *  *  uş  | 
e2d^c _7/8BAG2 z2=B2 A2{B}AG G8 c2d2 e2f2 g2=fe  | \
w:  *  *  *  *  *  *  şâ *  *  kı  *  ey le   | 
ag=fe d^c_7/8BA G2B2 A2G2 F2G2 A2AG G6|
w:  *  *  *  *  *  *  *  *  *  şâ *  *  *  *  *  di  *  gam    | 


